public/svgs/regular/square-6.svg

<svg xmlns="http://www.w3.org/2000/svg" viewBox="0 0 448 512"><!-- Font Awesome Pro 6.0.0-alpha2 by @fontawesome - https://fontawesome.com License - https://fontawesome.com/license (Commercial License) --><path d="M64 480H384C419.346 480 448 451.346 448 416V96C448 60.654 419.346 32 384 32H64C28.654 32 0 60.654 0 96V416C0 451.346 28.654 480 64 480ZM48 96C48 87.178 55.178 80 64 80H384C392.822 80 400 87.178 400 96V416C400 424.822 392.822 432 384 432H64C55.178 432 48 424.822 48 416V96ZM224 384C276.938 384 320 340.938 320 288C320 244.141 290.268 207.467 250.021 196.037L279.781 170.094C289.75 161.375 290.813 146.219 282.094 136.219C277.344 130.781 270.688 128 264 128C258.406 128 252.781 129.938 248.219 133.906L168.281 203.594C155.549 214.711 128 246.699 128 288C128 340.938 171.062 384 224 384ZM177.969 274.281C184 254.094 202.938 240 224 240C250.469 240 272 261.531 272 288S250.469 336 224 336S176 314.469 176 288C176 283.281 176.656 278.688 177.969 274.281Z"/></svg>

<svg xmlns="http://www.w3.org/2000/svg" viewBox="0 0 448 512"><!--! Font Awesome Pro 6.5.1 by @fontawesome - https://fontawesome.com License - https://fontawesome.com/license (Commercial License) Copyright 2023 Fonticons, Inc. --><path d="M384 80c8.8 0 16 7.2 16 16V416c0 8.8-7.2 16-16 16H64c-8.8 0-16-7.2-16-16V96c0-8.8 7.2-16 16-16H384zM64 32C28.7 32 0 60.7 0 96V416c0 35.3 28.7 64 64 64H384c35.3 0 64-28.7 64-64V96c0-35.3-28.7-64-64-64H64zM224 240a48 48 0 1 1 0 96 48 48 0 1 1 0-96zm-96 48c0 53 43 96 96 96s96-43 96-96c0-44-29.6-81.1-70-92.4l29.6-25.4c10.1-8.6 11.2-23.8 2.6-33.8s-23.8-11.2-33.8-2.6l-81.6 70C142.2 224.8 128 255.6 128 288z"/></svg>
